!!!COM: Victor Masse/
!!!CNT: Francais
!!!TXO: Francais
!!!OTL: Le Temps Fait Passer l'Amour
!!!LYR: Lambert Thiboust
!!!ONM: No. 9
!!!ENC: Jacob Pegg
!!!YOR: Romantic French Song 1830-1870 -David Tunley, ed.,
!!!YOR: New York: Garland Publishing, Inc., 1995, Vol. 4
!!!ODT: 1874/
!!NB: Vocal melody and text only encoded.
!!NB: First instance of melodic material only encoded.
**kern	**silbe
*clef G2	*
*k[f#c#]	*
*M2/4	*
=12	=12
8r	.
{8a	{Oui,
8dd	le
16cc#	temps
16b	|
=13	=13
8a	fait
8f#	pas-
8g	-ser
8b	l'a-
=14	=14
8a}	-mour;}
{8f	{Moi,
8b	j'en
16a	i-
16g	|
=15	=15
8f#	-gno-
8d	-rais
8e	lors-
8g	-qu'un
=16	=16
8f#	jour
16g	Lan-
16a	|
8f#	-de-
8d	-ri-
=17	=17
4..f#	-ret
32g	|
32f#	|
=18	=18
8e}	-te}
{8g	{Sur
8f#	son
8e	ca-
=19	=19
8ee	-not
16cc#	je
16ee	|
8a	suis
8g	par-
=20	=20
8f#	-ti.
16g	Lan-
16a	|
8e	-de-
8e	-ri-
=21	=21
4d}	-ri}
4r	.
=22	=22
2r	.
=23	=23
8r	.
{8e	{J'a-
8a	-vais
16b	dix~
16a	|
=24	=24
8g#	~huits
8f#	ou
8e	dix~
8b	~neuf
=25	=25
8a}	ans;}
{8e	{En
8cc#	moi
16dd	chan-
16cc#	|
=26	=26
8b	-taient
8a	tous
8g#	mes
8dd	prin-
=27	=27
8cc#	-temps
16dd	Lan-
16ee	|
8cc#	-de-
8a	-ri-
=28	=28
4..cc#	-ret-
32dd	|
32cc#	|
=29	=29
8b}	-te}
{8dd	{Car
8b	je
8a	par-
=30	=30
8g#	-tais
16b	a-
16g#	|
8e	-vec
8dd	Mi-
=31	=31
8cc#	-mi
16dd	Lan-
16ee	|
8b	-de-
8b	-ri-
=32	=32
4a}	-ri}
4r	.
=33	=33
2r	.
=34	=34
8r	.
{8gn	{Elle
8b	e/-
16gn	-tait
16f#	|
=35	=35
8e	blon-
8d#	-de et
8e	je
8g	l'ai-
=36	=36
8f#	-mais;
8a	Sous
8ccn	son
16a	re-
16g	|
=37	=37
8f#	-gard
8e#	je
8f#	fris-
8a	-son-
=38	=38
8g	-nais
16a	Lan-
16b	|
8g	-de-
8e	-ri-
=39	=39
4..dd	-ret-
32ee	|
32dd	|
=40	=40
8cc#}	-te}
{16a	{El-
16g#	|
8a	-le
8b	di-
=41	=41
8cc#	-sait
8dd	m'ai-
8ee	-mer
8a	aus-
=42	=42
8ff#	-si.
16d	El-
16c#	|
8d	-le
8e	di-
=43	=43
8f#	-sait
8g	m'ai-
8a	-mer
8d	aus-
=44	=44
2b}	-si.}
=45	=45
8r	.
{16g	{Lan-
16f#	|
8e	-de-
8e	-ri-
=46	=46
4d}	-ri}
4r	.
!!three melodically equivalent strophes follow. 
*-	*-
